X:324
T: "Graf Wattenwill "
N: Z1004
O: Europa, Mitteleuropa, Deutschland, Lothringen
R: Romanze, Ballade
M: 6/8
L: 1/16
K: C
G2 | C4D2_E4F2 | G4G2F4
G2 | _A4G2F2_E2F2 | G4G2G4
G2 | G2_A2_B2B2A2G2 | G4F2F4
F2 | _E2F2G2G2F2E2 | _E4D2D4
GG | G2F2_E2D2C2B,2 | C6-C4

